X: 10005
T: Devlin's
R: jig
M: 6/8
K: Bminor
c|:d2B BAB|F2B B2c|d3 Bed|cBc ABc|
d3 ede|f2b afe|dcB AFE|1 FBB B2:|2 FBB Bdf||
|:~a3 ~f3|ecA A2F|EAA cAA|ece f2e|
d2B BAB|F2B Bcd|efg fge|dBB B2:|

